src/assets/icons/drawer/icon-leaderboard.svg

<svg width="48" height="48" viewBox="0 0 48 48" fill="none" xmlns="http://www.w3.org/2000/svg">
<path opacity="0.35" d="M34 20V10C34 7.79 32.21 6 30 6H20C17.79 6 16 7.79 16 10V16H6C3.79 16 2 17.79 2 20V34C2 37.314 4.686 40 8 40H40C43.314 40 46 37.314 46 34V24C46 21.79 44.21 20 42 20H34Z" fill="#D764FF"/>
<path d="M24.11 20.67V13.154L23.396 13.694C22.822 14.128 21.998 13.958 21.64 13.334C21.338 12.806 21.48 12.136 21.97 11.778L23.924 10.348C24.232 10.12 24.602 10 24.982 10C25.97 10 26.77 10.8 26.77 11.788V20.668C26.77 21.402 26.174 21.998 25.44 21.998C24.706 22 24.11 21.404 24.11 20.67Z" fill="#D764FF"/>
<path d="M13.8021 23.3821C13.8021 25.4821 12.3681 26.6441 9.81007 29.6721H12.4941C13.1341 29.6721 13.6521 30.1901 13.6521 30.8301C13.6521 31.4701 13.1341 31.9881 12.4941 31.9881H8.36007C7.40007 31.9881 6.62207 31.2101 6.62207 30.2501C6.62207 29.8341 6.77207 29.4301 7.04207 29.1161C9.98407 25.7021 11.1681 24.7181 11.1681 23.4161C11.1681 23.0701 11.0961 22.1581 10.1621 22.1581C9.62807 22.1581 9.33007 22.4981 9.16407 22.8821C8.95407 23.3681 8.44407 23.6521 7.91607 23.6021C7.07807 23.5241 6.52607 22.6461 6.87407 21.8821C7.34607 20.8461 8.30207 19.8601 10.2461 19.8601C13.0901 19.8601 13.8021 21.9901 13.8021 23.3821Z" fill="#D764FF"/>
<path d="M41.58 32.456C41.58 35.12 39.604 36.166 37.854 36.166C36.204 36.166 35.214 35.484 34.64 34.684C34.146 33.994 34.526 33.02 35.348 32.812C35.856 32.682 36.37 32.906 36.672 33.334C36.878 33.628 37.208 33.876 37.736 33.876C38.758 33.876 38.99 32.822 38.99 32.338C38.99 31.262 38.308 30.834 37.37 30.834H37.35C36.806 30.834 36.364 30.392 36.364 29.848C36.364 29.304 36.806 28.862 37.35 28.862H37.438C37.884 28.862 38.824 28.706 38.824 27.374C38.824 27.04 38.688 26.12 37.738 26.12C37.328 26.12 37.062 26.32 36.888 26.56C36.616 26.934 36.17 27.136 35.72 27.026L35.568 26.988C34.832 26.806 34.484 25.938 34.922 25.32C35.446 24.576 36.36 23.832 37.924 23.832C39.898 23.832 41.348 25.122 41.348 27.042C41.348 28.666 40.47 29.528 39.728 29.732V29.782C40.362 29.922 41.58 30.71 41.58 32.456Z" fill="#D764FF"/>
</svg>

<svg xmlns="http://www.w3.org/2000/svg" width="48" height="48" fill="#d764ff" xmlns:v="https://vecta.io/nano"><path opacity=".35" d="M34 20V10a4 4 0 0 0-4-4H20a4 4 0 0 0-4 4v6H6a4 4 0 0 0-4 4v14a6 6 0 0 0 6 6h32a6 6 0 0 0 6-6V24a4 4 0 0 0-4-4h-8z"/><path d="M24.11 20.67v-7.516l-.714.54c-.574.434-1.398.264-1.756-.36-.302-.528-.16-1.198.33-1.556l1.954-1.43c.308-.228.678-.348 1.058-.348a1.79 1.79 0 0 1 1.788 1.788v8.88a1.33 1.33 0 1 1-2.66.002zm-10.308 2.712c0 2.1-1.434 3.262-3.992 6.29h2.684a1.16 1.16 0 0 1 1.158 1.158 1.16 1.16 0 0 1-1.158 1.158H8.36a1.74 1.74 0 0 1-1.738-1.738c0-.416.15-.82.42-1.134 2.942-3.414 4.126-4.398 4.126-5.7 0-.346-.072-1.258-1.006-1.258-.534 0-.832.34-.998.724-.21.486-.72.77-1.248.72-.838-.078-1.39-.956-1.042-1.72.472-1.036 1.428-2.022 3.372-2.022 2.844 0 3.556 2.13 3.556 3.522zm27.778 9.074c0 2.664-1.976 3.71-3.726 3.71-1.65 0-2.64-.682-3.214-1.482-.494-.69-.114-1.664.708-1.872.508-.13 1.022.094 1.324.522a1.23 1.23 0 0 0 1.064.542c1.022 0 1.254-1.054 1.254-1.538 0-1.076-.682-1.504-1.62-1.504h-.02c-.544 0-.986-.442-.986-.986s.442-.986.986-.986h.088c.446 0 1.386-.156 1.386-1.488 0-.334-.136-1.254-1.086-1.254-.41 0-.676.2-.85.44-.272.374-.718.576-1.168.466l-.152-.038c-.736-.182-1.084-1.05-.646-1.668.524-.744 1.438-1.488 3.002-1.488 1.974 0 3.424 1.29 3.424 3.21 0 1.624-.878 2.486-1.62 2.69v.05c.634.14 1.852.928 1.852 2.674z"/></svg>
